X:1
T:I Will Sing of Jesus’ Love
T:I Will Sing of Jesus’ Love
T:Franklin Edson Belden
T:Franklin Edson Belden, 1886
T:Public Domain Courtesy of the Cyber Hymnal™
C:Franklin Edson Belden
Z:Public Domain
Z:Courtesy of the Cyber Hymnal™
%%score ( 1 2 ) ( 3 4 )
L:1/8
Q:1/4=112
M:4/4
K:Bb
V:1 treble 
V:2 treble 
V:3 bass 
V:4 bass 
V:1
 [B,D]>[CE] | F6 [Fd]2 | [Fd]2 [Ec]2 [DB]2 [A,C]>[B,D] | E6 [EG]2 | [EG]2 [DF]2 [B,D]2 [B,D]>[CE] | %5
w: 1.~I will|sing of|Je- sus’ love, Sing of|Him Who|first loved me; For He|
w: 2.~O the|depths of|love di- vine! Earth or|Heav’n can|nev- er know How that|
w: 3.~No- thing|good for|Him I’ve done; How could|He such|love be- stow? Lord, I|
 F6 [F_Ad]2 | [Gd]2 [Gc]2 !fermata![Ge]2 [G-d]>[Gc] | [FB]3 [DB] [Ec]2 [EA]2 | [DB]6 || %9
w: left bright|worlds a- bove, And *|died on Cal- va-|ry.|
w: sins as|dark as mine Can~be *|made as white as|snow.|
w: own my|heart is won, Help~me *|now my love to|show.|
"^Refrain" [_AB]>[AB] | [GB]6 ([FA][EG]) | [DF]2 [DB]2 [Fd]2 [FB]>[Fc] | [Fd]6 ([Ge][Fd]) | %13
w: I will|sing of *|Je- sus’ love, End- less|praise my *|
w: ||||
w: ||||
 [Fd]2 [Fc]2 [Fc]2 [Fd]>[Ec] | B6 [^FA]2 | [^FA]2 G2 [EG]2 [GB]>[Gc] | [Fd]3 [FB] [Fc]3 [FA] | %17
w: heart shall give; He has|died that|I might live— I will|sing His love for|
w: ||||
w: ||||
 [FB]6 |] %18
w: me.|
w: |
w: |
V:2
 x2 | (D2 D>D D2) x2 | x8 | (C2 C>C C2) x2 | x8 | (D2 D>D D2) x2 | x8 | x8 | x6 || x2 | x8 | x8 | %12
 x8 | x8 | (D2 G4) x2 | x2 G2 x4 | x8 | x6 |] %18
V:3
 [B,,F,]>[B,,F,] | B,2 B,>B, B,2 [B,,B,]2 | [F,B,]2 F,2 [B,,F,]2 F,>F, | A,2 A,>A, A,2 [F,A,]2 | %4
w: ~ ~|~ ~ ~ ~ ~|~ ~ ~ ~ ~|~ ~ ~ ~ ~|
 [B,,B,]2 [B,,B,]2 [B,,F,]2 [B,,F,]>[B,,F,] | B,2 B,>B, B,2 [B,,B,]2 | %6
w: ~ ~ ~ ~ ~|~ ~ ~ ~ ~|
 [E,B,]2 [E,B,]2 !fermata![E,B,]2 [E,-B,]>[E,E] | [F,D]3 [F,B,] [F,A,]2 [F,C]2 | [B,,B,]6 || %9
w: ~ ~ ~ ~ *|~ ~ ~ ~|~|
 [B,,D]>[B,,D] | [E,E]2 [E,E]>[E,E] [E,E]2 [E,B,]2 | [B,,B,]2 [B,,F,]2 [B,,B,]2 [D,B,]>[F,A,] | %12
w: ~ ~|~ I will sing ~|~ ~ ~ ~ ~|
 B,2 [B,,B,]>[B,,B,] [B,,B,]2 [B,,B,]2 | [F,B,]2 [F,A,]2 [F,A,]2 [F,B,]>[F,A,] | %14
w: ~ end- less praise ~|~ ~ ~ ~ ~|
 [G,B,]2 [G,D]>[G,D] [D,D]2 [D,C]2 | [E,C]2 [E,B,]2 [E,B,]2 [E,B,]>[=E,B,] | %16
w: ~ He has died *||
 [F,B,]3 [F,D] [F,E]3 [F,C] | [B,,D]6 |] %18
w: ||
V:4
 x2 | B,,6 x2 | x2 F,2 x4 | F,6 x2 | x8 | B,,6 x2 | x8 | x8 | x6 || x2 | x8 | x8 | B,2 x6 | x8 | %14
 x8 | x8 | x8 | x6 |] %18

